places/16/playlist-queue.svg

<?xml version="1.0" encoding="UTF-8" standalone="no"?>
<svg
   xmlns:dc="http://purl.org/dc/elements/1.1/"
   xmlns:cc="http://creativecommons.org/ns#"
   xmlns:rdf="http://www.w3.org/1999/02/22-rdf-syntax-ns#"
   xmlns:svg="http://www.w3.org/2000/svg"
   xmlns="http://www.w3.org/2000/svg"
   xmlns:xlink="http://www.w3.org/1999/xlink"
   id="svg4017"
   height="16"
   width="16"
   version="1.1">
  <defs
     id="defs4019">
    <linearGradient
       id="linearGradient4363">
      <stop
         offset="0"
         style="stop-color:#ffffff;stop-opacity:1"
         id="stop4365" />
      <stop
         offset="0"
         style="stop-color:#ffffff;stop-opacity:0.23529412"
         id="stop4367" />
      <stop
         offset="1"
         style="stop-color:#ffffff;stop-opacity:0.15686275"
         id="stop4369" />
      <stop
         offset="1"
         style="stop-color:#ffffff;stop-opacity:0.39215687"
         id="stop4371" />
    </linearGradient>
    <linearGradient
       id="linearGradient3969-2-2">
      <stop
         id="stop3971-8-68"
         style="stop-color:#ffffff;stop-opacity:1"
         offset="0" />
      <stop
         id="stop3973-0-0"
         style="stop-color:#ffffff;stop-opacity:0.23529412"
         offset="0.02715775" />
      <stop
         id="stop3975-2-2"
         style="stop-color:#ffffff;stop-opacity:0.15686275"
         offset="0.977117" />
      <stop
         id="stop3977-5-7"
         style="stop-color:#ffffff;stop-opacity:0.39215687"
         offset="1" />
    </linearGradient>
    <linearGradient
       id="linearGradient2867-449-88-871-390-598-476-591-434-148-57-177-0-3-3-3">
      <stop
         id="stop3750-4-7-5-2"
         style="stop-color:#90dbec;stop-opacity:1"
         offset="0" />
      <stop
         id="stop3752-4-7-3-5"
         style="stop-color:#55c1ec;stop-opacity:1"
         offset="0.26238" />
      <stop
         id="stop3754-4-8-6-2"
         style="stop-color:#3689e6;stop-opacity:1"
         offset="0.704952" />
      <stop
         id="stop3756-4-7-7-8"
         style="stop-color:#2b63a0;stop-opacity:1"
         offset="1" />
    </linearGradient>
    <linearGradient
       id="linearGradient3707-319-631-407-324-6-9-4-8">
      <stop
         id="stop3760-3-6-5-4"
         style="stop-color:#185f9a;stop-opacity:1"
         offset="0" />
      <stop
         id="stop3762-1-8-8-5"
         style="stop-color:#599ec9;stop-opacity:1"
         offset="1" />
    </linearGradient>
    <radialGradient
       r="19.99999"
       fy="8.4497671"
       fx="7.4956832"
       cy="8.4497671"
       cx="7.4956832"
       gradientTransform="matrix(0,0.7789967,-0.69730319,-1.4352092e-8,15.91124,-4.1449333)"
       gradientUnits="userSpaceOnUse"
       id="radialGradient3110"
       xlink:href="#linearGradient3242-7-3-8-0-4-58-06" />
    <linearGradient
       y2="40.651436"
       x2="23.99999"
       y1="7.015079"
       x1="23.99999"
       gradientTransform="matrix(0.24324325,0,0,0.29729734,4.226239,0.9144357)"
       gradientUnits="userSpaceOnUse"
       id="linearGradient3114"
       xlink:href="#linearGradient4363" />
    <linearGradient
       id="linearGradient2867-449-88-871-390-598-476-591-434-148-57-177-8-3">
      <stop
         offset="0"
         style="stop-color:#ffcd7d;stop-opacity:1"
         id="stop3750-1-0" />
      <stop
         offset="0.26238"
         style="stop-color:#fc8f36;stop-opacity:1"
         id="stop3752-3-7" />
      <stop
         offset="0.704952"
         style="stop-color:#e23a0e;stop-opacity:1"
         id="stop3754-1-8" />
      <stop
         offset="1"
         style="stop-color:#ac441f;stop-opacity:1"
         id="stop3756-1-6" />
    </linearGradient>
    <linearGradient
       id="linearGradient4039">
      <stop
         offset="0"
         style="stop-color:#ba3d12;stop-opacity:1"
         id="stop4041" />
      <stop
         offset="1"
         style="stop-color:#db6737;stop-opacity:1"
         id="stop4043" />
    </linearGradient>
    <linearGradient
       y2="40.947613"
       x2="23.99999"
       y1="6.5955768"
       x1="23.99999"
       gradientTransform="matrix(0.1868003,0,0,0.21905014,2.958826,3.1358213)"
       gradientUnits="userSpaceOnUse"
       id="linearGradient3125"
       xlink:href="#linearGradient3969-2-2" />
    <radialGradient
       r="19.99999"
       fy="8.4497671"
       fx="7.4956832"
       cy="8.4497671"
       cx="7.4956832"
       gradientTransform="matrix(0,0.60021493,-0.56211623,0,12.183485,-1.9428728)"
       gradientUnits="userSpaceOnUse"
       id="radialGradient3128"
       xlink:href="#linearGradient2867-449-88-871-390-598-476-591-434-148-57-177-0-3-3-3" />
    <linearGradient
       y2="3.8990016"
       x2="24"
       y1="44"
       x1="24"
       gradientTransform="matrix(0.22736968,0,0,0.25683247,1.9768366,1.2507879)"
       gradientUnits="userSpaceOnUse"
       id="linearGradient3130"
       xlink:href="#linearGradient3707-319-631-407-324-6-9-4-8" />
    <radialGradient
       r="19.99999"
       fy="8.4497671"
       fx="7.4956832"
       cy="8.4497671"
       cx="7.4956832"
       gradientTransform="matrix(0,0.5412788,-0.44373839,0,7.7635592,-0.497263)"
       gradientUnits="userSpaceOnUse"
       id="radialGradient3920"
       xlink:href="#linearGradient2867-449-88-871-390-598-476-591-434-148-57-177-8-3" />
    <linearGradient
       y2="3.8990016"
       x2="24"
       y1="44"
       x1="24"
       gradientTransform="matrix(0.17948718,0,0,0.23161364,-0.29363883,2.3828067)"
       gradientUnits="userSpaceOnUse"
       id="linearGradient3922"
       xlink:href="#linearGradient4039" />
    <linearGradient
       y2="46.44474"
       x2="23.463242"
       y1="6.5955768"
       x1="23.99999"
       gradientTransform="matrix(0.13274626,0,0,0.18649593,0.88534252,3.5959609)"
       gradientUnits="userSpaceOnUse"
       id="linearGradient3924"
       xlink:href="#linearGradient3969-2-2" />
    <linearGradient
       id="linearGradient3242-7-3-8-0-4-58-06">
      <stop
         offset="0"
         style="stop-color:#cdf87e;stop-opacity:1"
         id="stop3244-5-8-5-6-4-3-8" />
      <stop
         offset="0.26238"
         style="stop-color:#a2e34f;stop-opacity:1"
         id="stop3246-9-5-1-5-3-0-7" />
      <stop
         offset="0.66093999"
         style="stop-color:#68b723;stop-opacity:1"
         id="stop3248-7-2-0-7-5-35-9" />
      <stop
         offset="1"
         style="stop-color:#1d7e0d;stop-opacity:1"
         id="stop3250-8-2-8-5-6-40-4" />
    </linearGradient>
  </defs>
  <metadata
     id="metadata4022">
    <rdf:RDF>
      <cc:Work
         rdf:about="">
        <dc:format>image/svg+xml</dc:format>
        <dc:type
           rdf:resource="http://purl.org/dc/dcmitype/StillImage" />
        <dc:title></dc:title>
      </cc:Work>
    </rdf:RDF>
  </metadata>
  <g
     transform="translate(0.9999466,0)"
     id="g3916">
    <path
       style="color:#000000;fill:url(#radialGradient3920);fill-opacity:1;fill-rule:nonzero;stroke:url(#linearGradient3922);stroke-width:1;stroke-linecap:round;stroke-linejoin:round;stroke-miterlimit:4;stroke-opacity:1;stroke-dashoffset:0;marker:none;visibility:visible;display:inline;overflow:visible;enable-background:accumulate"
       d="m 0.5140534,3.4250676 7,4.0000004 0,2.3412979 -7,2.7941771 z"
       id="rect3130" />
    <path
       style="opacity:0.5;fill:none;stroke:url(#linearGradient3924);stroke-width:1;stroke-linecap:round;stroke-linejoin:round;stroke-miterlimit:4;stroke-opacity:1;stroke-dashoffset:0"
       d="m 1.6154464,5.152016 4.9116116,4 0,-0.3216141 -4.9584866,2.5430191 z"
       id="rect3912" />
  </g>
  <path
     id="rect3116"
     d="m 3,2.4065339 8.867417,2 0,7.4432971 L 3,13.537331 z"
     style="color:#000000;fill:url(#radialGradient3128);fill-opacity:1;fill-rule:nonzero;stroke:url(#linearGradient3130);stroke-width:1;stroke-linecap:round;stroke-linejoin:round;stroke-miterlimit:4;stroke-opacity:1;stroke-dashoffset:0;marker:none;visibility:visible;display:inline;overflow:visible;enable-background:accumulate" />
  <path
     id="rect3908"
     d="m 3.9862271,3.6758061 6.9116109,1.9999996 0,6.7696443 -6.9116109,0 z"
     style="opacity:0.5;fill:none;stroke:url(#linearGradient3125);stroke-width:1;stroke-linecap:round;stroke-linejoin:miter;stroke-miterlimit:4;stroke-opacity:1;stroke-dashoffset:0" />
  <rect
     style="color:#000000;fill:url(#radialGradient3110);fill-opacity:1.0;fill-rule:nonzero;stroke:none;stroke-width:1;stroke-linecap:round;stroke-linejoin:round;stroke-miterlimit:4;stroke-opacity:1;stroke-dasharray:none;stroke-dashoffset:0;marker:none;visibility:visible;display:inline;overflow:visible;enable-background:accumulate"
     id="rect5505-21-7-1-69"
     y="1.5"
     x="4.5191598"
     ry="0"
     rx="0"
     height="13"
     width="11" />
  <path
     d="m 10.465989,4.6888712 c -0.331961,-0.018736 -0.383003,0.3407157 -0.347968,0.579429 l 0,4.6915348 c -0.2036456,-0.04279 -0.4693605,-0.0245 -0.6989544,0.04325 -0.6898445,0.183527 -1.3031205,0.807184 -1.2462395,1.525607 0.07972,0.672762 0.8767766,1.111693 1.5339027,0.911889 0.7444182,-0.176229 1.1760302,-0.823028 1.1760302,-1.657853 l 0,-3.714138 c 0.618432,0.326986 1.175337,0.938017 1.162612,1.657878 0.0068,0.520353 -0.139182,1.040706 -0.345312,1.514372 -0.02773,0.05718 0.03267,0.113214 0.07725,0.134922 0.119366,0.03335 0.181384,-0.123145 0.248848,-0.196825 0.71844,-0.96325 0.764914,-2.37884 -0.0105,-3.325214 C 11.740424,6.5176597 11.38203,6.2314411 11.194342,5.8411028 11.006446,5.5408792 10.887367,5.2012167 10.829508,4.8586402 10.753714,4.7348166 10.609201,4.687733 10.465989,4.6888712 z"
     id="path3926-2-6"
     style="opacity:0.3;fill:#ffffff;fill-opacity:1;stroke:none" />
  <path
     d="M 10.465989,3.917068 C 10.134028,3.898332 10.082986,4.2577837 10.118021,4.496497 l 0,4.691535 C 9.9143754,9.145242 9.6486605,9.163532 9.4190666,9.231282 8.7292221,9.41481 8.1159461,10.038468 8.1728271,10.756889 c 0.07972,0.672762 0.8767766,1.111694 1.5339027,0.911889 0.7444182,-0.176229 1.1760302,-0.823029 1.1760302,-1.657853 l 0,-3.7141384 c 0.618432,0.3269857 1.175337,0.9380164 1.162612,1.6578784 0.0068,0.520352 -0.139182,1.040704 -0.345312,1.514371 -0.02773,0.05718 0.03267,0.113216 0.07725,0.134924 0.119366,0.03335 0.181384,-0.123146 0.248848,-0.196826 0.71844,-0.963245 0.764914,-2.378836 -0.01051,-3.3252093 C 11.740424,5.7458565 11.38203,5.4596379 11.194342,5.0692996 11.006446,4.769076 10.887367,4.4294135 10.829508,4.086837 10.753714,3.9630134 10.609201,3.9159298 10.465989,3.917068 z"
     id="path3926-0-7-3"
     style="fill:#24760a;fill-opacity:1;stroke:none" />
  <rect
     width="9"
     height="11"
     x="5.5640755"
     y="2.5495679"
     id="rect6741-0-3-8-9"
     style="opacity:0.7;fill:none;stroke:url(#linearGradient3114);stroke-width:0.99999994;stroke-linecap:round;stroke-linejoin:miter;stroke-miterlimit:4;stroke-opacity:1;stroke-dasharray:none;stroke-dashoffset:0" />
  <rect
     style="color:#000000;display:inline;overflow:visible;visibility:visible;fill:none;fill-opacity:1;fill-rule:nonzero;stroke:#0f5a00;stroke-width:1;stroke-linecap:round;stroke-linejoin:miter;stroke-miterlimit:4;stroke-dasharray:none;stroke-dashoffset:0;stroke-opacity:1;marker:none;enable-background:accumulate;clip-rule:nonzero;opacity:0.5;isolation:auto;mix-blend-mode:normal;color-interpolation:sRGB;color-interpolation-filters:linearRGB;solid-color:#000000;solid-opacity:1;filter-blend-mode:normal;filter-gaussianBlur-deviation:0;color-rendering:auto;image-rendering:auto;shape-rendering:auto;text-rendering:auto"
     id="rect5505-21-7-1-69-2"
     y="1.5"
     x="4.5191598"
     ry="0"
     rx="0"
     height="13"
     width="11" />
</svg>

<svg xmlns="http://www.w3.org/2000/svg" xmlns:xlink="http://www.w3.org/1999/xlink" viewBox="0 0 16 16"><defs><linearGradient id="b"><stop offset="0" stop-color="#fff"/><stop offset="0" stop-color="#fff" stop-opacity=".235"/><stop offset="1" stop-color="#fff" stop-opacity=".157"/><stop offset="1" stop-color="#fff" stop-opacity=".392"/></linearGradient><linearGradient id="c"><stop offset="0" stop-color="#fff"/><stop offset=".027" stop-color="#fff" stop-opacity=".235"/><stop offset=".977" stop-color="#fff" stop-opacity=".157"/><stop offset="1" stop-color="#fff" stop-opacity=".392"/></linearGradient><linearGradient id="d"><stop offset="0" stop-color="#90dbec"/><stop offset=".262" stop-color="#55c1ec"/><stop offset=".705" stop-color="#3689e6"/><stop offset="1" stop-color="#2b63a0"/></linearGradient><linearGradient id="e"><stop offset="0" stop-color="#185f9a"/><stop offset="1" stop-color="#599ec9"/></linearGradient><radialGradient r="20" fy="8.45" fx="7.496" cy="8.45" cx="7.496" gradientTransform="matrix(0 .779 -.6973 0 15.91 -4.145)" gradientUnits="userSpaceOnUse" id="n" xlink:href="#a"/><linearGradient y2="40.651" x2="24" y1="7.015" x1="24" gradientTransform="matrix(.24324 0 0 .2973 4.226 .914)" gradientUnits="userSpaceOnUse" id="o" xlink:href="#b"/><linearGradient id="f"><stop offset="0" stop-color="#ffcd7d"/><stop offset=".262" stop-color="#fc8f36"/><stop offset=".705" stop-color="#e23a0e"/><stop offset="1" stop-color="#ac441f"/></linearGradient><linearGradient id="g"><stop offset="0" stop-color="#ba3d12"/><stop offset="1" stop-color="#db6737"/></linearGradient><linearGradient y2="40.948" x2="24" y1="6.596" x1="24" gradientTransform="matrix(.1868 0 0 .21905 2.96 3.136)" gradientUnits="userSpaceOnUse" id="m" xlink:href="#c"/><radialGradient r="20" fy="8.45" fx="7.496" cy="8.45" cx="7.496" gradientTransform="matrix(0 .6002 -.56212 0 12.183 -1.943)" gradientUnits="userSpaceOnUse" id="k" xlink:href="#d"/><linearGradient y2="3.899" x2="24" y1="44" x1="24" gradientTransform="matrix(.22737 0 0 .25683 1.977 1.25)" gradientUnits="userSpaceOnUse" id="l" xlink:href="#e"/><radialGradient r="20" fy="8.45" fx="7.496" cy="8.45" cx="7.496" gradientTransform="matrix(0 .54128 -.44374 0 7.764 -.497)" gradientUnits="userSpaceOnUse" id="h" xlink:href="#f"/><linearGradient y2="3.899" x2="24" y1="44" x1="24" gradientTransform="matrix(.1795 0 0 .2316 -.294 2.383)" gradientUnits="userSpaceOnUse" id="i" xlink:href="#g"/><linearGradient y2="46.445" x2="23.463" y1="6.596" x1="24" gradientTransform="matrix(.13275 0 0 .1865 .885 3.596)" gradientUnits="userSpaceOnUse" id="j" xlink:href="#c"/><linearGradient id="a"><stop offset="0" stop-color="#cdf87e"/><stop offset=".262" stop-color="#a2e34f"/><stop offset=".661" stop-color="#68b723"/><stop offset="1" stop-color="#1d7e0d"/></linearGradient></defs><g stroke-linecap="round" stroke-linejoin="round"><path d="M.514 3.425l7 4v2.34l-7 2.796z" color="#000" fill="url(#h)" stroke="url(#i)" overflow="visible" transform="translate(1)"/><path d="M1.615 5.152l4.912 4V8.83L1.57 11.373z" opacity=".5" fill="none" stroke="url(#j)" transform="translate(1)"/></g><path d="M3 2.407l8.867 2v7.443L3 13.537z" color="#000" fill="url(#k)" stroke="url(#l)" stroke-linecap="round" stroke-linejoin="round" overflow="visible"/><path d="M3.986 3.676l6.912 2v6.77H3.986z" opacity=".5" fill="none" stroke="url(#m)" stroke-linecap="round"/><rect y="1.5" x="4.519" ry="0" rx="0" height="13" width="11" color="#000" fill="url(#n)" overflow="visible"/><path d="M10.466 4.69c-.332-.02-.383.34-.348.578V9.96a1.522 1.522 0 0 0-.7.043c-.69.184-1.302.807-1.245 1.526.08.67.877 1.11 1.534.91.744-.18 1.176-.83 1.176-1.66V7.07c.618.326 1.175.937 1.162 1.656.007.52-.14 1.04-.345 1.515-.028.06.033.12.077.14.12.038.182-.12.25-.192.718-.963.764-2.38-.01-3.325-.277-.336-.635-.623-.823-1.013a2.69 2.69 0 0 1-.364-.98c-.076-.125-.22-.17-.364-.17z" opacity=".3" fill="#fff"/><path d="M10.466 3.917c-.332-.02-.383.34-.348.58v4.69a1.522 1.522 0 0 0-.7.044c-.69.19-1.302.81-1.245 1.53.08.68.877 1.11 1.534.91.744-.17 1.176-.82 1.176-1.66V6.3c.618.327 1.175.938 1.162 1.658.007.52-.14 1.04-.345 1.514-.028.056.033.112.077.134.12.033.182-.123.25-.197.718-.97.764-2.38-.01-3.33-.277-.338-.635-.62-.823-1.015a2.68 2.68 0 0 1-.364-.985c-.076-.123-.22-.17-.364-.17z" fill="#24760a"/><path opacity=".7" fill="none" stroke="url(#o)" stroke-linecap="round" d="M5.564 2.55h9v11h-9z"/><rect style="isolation:auto;mix-blend-mode:normal;filter-blend-mode:normal;filter-gaussianBlur-deviation:0" y="1.5" x="4.519" ry="0" rx="0" height="13" width="11" color="#000" overflow="visible" fill="none" stroke="#0f5a00" stroke-linecap="round" opacity=".5"/></svg>
